resources/svg/eye-o.svg

<svg xmlns="http://www.w3.org/2000/svg" viewBox="0 0 15 15" fill="none"><path d="M0.5 7.5L0.0357612 7.31431C-0.0119204 7.43351 -0.0119204 7.56649 0.0357612 7.68569L0.5 7.5ZM14.5 7.5L14.9642 7.6857C15.0119 7.56649 15.0119 7.43351 14.9642 7.3143L14.5 7.5ZM7.49998 12C5.18597 12 3.56111 10.8483 2.49664 9.66552C1.96405 9.07375 1.57811 8.48029 1.32563 8.03474C1.19968 7.81247 1.10772 7.62838 1.04797 7.50164C1.01811 7.4383 0.996349 7.3894 0.98246 7.35735C0.975517 7.34133 0.970545 7.32953 0.967517 7.32225C0.966003 7.31861 0.964975 7.3161 0.96443 7.31477C0.964157 7.3141 0.964005 7.31372 0.963973 7.31364C0.963958 7.3136 0.963972 7.31364 0.964016 7.31375C0.964038 7.31381 0.964094 7.31394 0.964105 7.31397C0.964168 7.31413 0.964239 7.31431 0.5 7.5C0.0357612 7.68569 0.0358471 7.68591 0.0359408 7.68614C0.0359823 7.68625 0.036084 7.6865 0.0361671 7.68671C0.0363335 7.68712 0.0365311 7.68761 0.0367599 7.68818C0.0372175 7.68931 0.0377999 7.69075 0.0385076 7.69248C0.0399231 7.69595 0.0418401 7.70062 0.0442628 7.70644C0.0491078 7.71808 0.0559773 7.73436 0.0649031 7.75495C0.0827516 7.79614 0.108844 7.85467 0.143439 7.92805C0.212592 8.07474 0.315944 8.28128 0.455611 8.52776C0.734381 9.01971 1.16093 9.67625 1.75334 10.3345C2.93886 11.6517 4.814 13 7.49998 13V12ZM0.5 7.5C0.964239 7.68569 0.964168 7.68587 0.964105 7.68603C0.964094 7.68606 0.964038 7.68619 0.964016 7.68625C0.963972 7.68636 0.963958 7.6864 0.963973 7.68636C0.964005 7.68628 0.964157 7.6859 0.96443 7.68523C0.964975 7.6839 0.966003 7.68139 0.967517 7.67775C0.970545 7.67047 0.975517 7.65867 0.98246 7.64265C0.996349 7.6106 1.01811 7.5617 1.04797 7.49836C1.10772 7.37162 1.19968 7.18753 1.32563 6.96526C1.57811 6.51971 1.96405 5.92625 2.49664 5.33448C3.56111 4.15173 5.18597 3 7.49998 3V2C4.814 2 2.93886 3.34827 1.75334 4.66552C1.16093 5.32375 0.734381 5.98029 0.455611 6.47224C0.315944 6.71872 0.212592 6.92526 0.143439 7.07195C0.108844 7.14533 0.0827516 7.20386 0.0649031 7.24505C0.0559773 7.26564 0.0491078 7.28192 0.0442628 7.29356C0.0418401 7.29938 0.0399231 7.30405 0.0385076 7.30752C0.0377999 7.30925 0.0372175 7.31069 0.0367599 7.31182C0.0365311 7.31239 0.0363335 7.31288 0.0361671 7.31329C0.036084 7.3135 0.0359823 7.31375 0.0359408 7.31386C0.0358471 7.31409 0.0357612 7.31431 0.5 7.5ZM7.49998 3C9.814 3 11.4389 4.15173 12.5033 5.33448C13.0359 5.92625 13.4219 6.51971 13.6744 6.96526C13.8003 7.18754 13.8923 7.37162 13.952 7.49837C13.9819 7.5617 14.0037 7.6106 14.0175 7.64265C14.0245 7.65868 14.0295 7.67048 14.0325 7.67775C14.034 7.68139 14.035 7.6839 14.0356 7.68524C14.0358 7.6859 14.036 7.68628 14.036 7.68636C14.036 7.6864 14.036 7.68636 14.036 7.68625C14.036 7.6862 14.0359 7.68606 14.0359 7.68603C14.0358 7.68587 14.0358 7.6857 14.5 7.5C14.9642 7.3143 14.9642 7.31409 14.9641 7.31385C14.964 7.31375 14.9639 7.3135 14.9638 7.31329C14.9637 7.31288 14.9635 7.31239 14.9632 7.31182C14.9628 7.31069 14.9622 7.30925 14.9615 7.30752C14.9601 7.30405 14.9582 7.29938 14.9557 7.29356C14.9509 7.28192 14.944 7.26564 14.9351 7.24504C14.9172 7.20385 14.8912 7.14533 14.8566 7.07195C14.7874 6.92526 14.6841 6.71871 14.5444 6.47224C14.2656 5.98029 13.8391 5.32375 13.2466 4.66552C12.0611 3.34827 10.186 2 7.49998 2V3ZM14.5 7.5C14.0358 7.3143 14.0358 7.31413 14.0359 7.31397C14.0359 7.31394 14.036 7.3138 14.036 7.31375C14.036 7.31364 14.036 7.3136 14.036 7.31364C14.036 7.31372 14.0358 7.3141 14.0356 7.31476C14.035 7.3161 14.034 7.31861 14.0325 7.32225C14.0295 7.32952 14.0245 7.34132 14.0175 7.35735C14.0037 7.3894 13.9819 7.4383 13.952 7.50163C13.8923 7.62838 13.8003 7.81246 13.6744 8.03474C13.4219 8.48029 13.0359 9.07375 12.5033 9.66552C11.4389 10.8483 9.814 12 7.49998 12V13C10.186 13 12.0611 11.6517 13.2466 10.3345C13.8391 9.67625 14.2656 9.01971 14.5444 8.52776C14.6841 8.28129 14.7874 8.07474 14.8566 7.92805C14.8912 7.85467 14.9172 7.79615 14.9351 7.75496C14.944 7.73436 14.9509 7.71808 14.9557 7.70644C14.9582 7.70062 14.9601 7.69595 14.9615 7.69248C14.9622 7.69075 14.9628 7.68931 14.9632 7.68818C14.9635 7.68761 14.9637 7.68712 14.9638 7.68671C14.9639 7.6865 14.964 7.68625 14.9641 7.68615C14.9642 7.68591 14.9642 7.6857 14.5 7.5ZM7.5 9C6.67157 9 6 8.32843 6 7.5H5C5 8.88071 6.11929 10 7.5 10V9ZM9 7.5C9 8.32843 8.32843 9 7.5 9V10C8.88071 10 10 8.88071 10 7.5H9ZM7.5 6C8.32843 6 9 6.67157 9 7.5H10C10 6.11929 8.88071 5 7.5 5V6ZM7.5 5C6.11929 5 5 6.11929 5 7.5H6C6 6.67157 6.67157 6 7.5 6V5Z" fill="black"/></svg>

<svg xmlns="http://www.w3.org/2000/svg" viewBox="0 0 15 15" fill="none"><path d="M.5 7.5l-.464-.186a.5.5 0 000 .372L.5 7.5zm14 0l.464.186a.5.5 0 000-.372L14.5 7.5zm-7 4.5c-2.314 0-3.939-1.152-5.003-2.334a9.368 9.368 0 01-1.449-2.164 5.065 5.065 0 01-.08-.18l-.004-.007v-.001L.5 7.5l-.464.186v.002l.003.004a2.107 2.107 0 00.026.063l.078.173a10.368 10.368 0 001.61 2.406C2.94 11.652 4.814 13 7.5 13v-1zm-7-4.5l.464.186.004-.008a2.62 2.62 0 01.08-.18 9.368 9.368 0 011.449-2.164C3.56 4.152 5.186 3 7.5 3V2C4.814 2 2.939 3.348 1.753 4.666a10.367 10.367 0 00-1.61 2.406 6.05 6.05 0 00-.104.236l-.002.004v.001H.035L.5 7.5zm7-4.5c2.314 0 3.939 1.152 5.003 2.334a9.37 9.37 0 011.449 2.164 4.705 4.705 0 01.08.18l.004.007v.001L14.5 7.5l.464-.186v-.002l-.003-.004a.656.656 0 00-.026-.063 9.094 9.094 0 00-.39-.773 10.365 10.365 0 00-1.298-1.806C12.06 3.348 10.186 2 7.5 2v1zm7 4.5a68.887 68.887 0 01-.464-.186l-.003.008-.015.035-.066.145a9.37 9.37 0 01-1.449 2.164C11.44 10.848 9.814 12 7.5 12v1c2.686 0 4.561-1.348 5.747-2.665a10.366 10.366 0 001.61-2.407 6.164 6.164 0 00.104-.236l.002-.004v-.001h.001L14.5 7.5zM7.5 9A1.5 1.5 0 016 7.5H5A2.5 2.5 0 007.5 10V9zM9 7.5A1.5 1.5 0 017.5 9v1A2.5 2.5 0 0010 7.5H9zM7.5 6A1.5 1.5 0 019 7.5h1A2.5 2.5 0 007.5 5v1zm0-1A2.5 2.5 0 005 7.5h1A1.5 1.5 0 017.5 6V5z" fill="currentColor"/></svg>
